packages/core/src/svgs/tokens/mono/UBXS.svg

<svg width="24" height="24" viewBox="0 0 24 24" fill="none" xmlns="http://www.w3.org/2000/svg">
<path d="M21.9076 10.6233C21.7108 9.23651 21.2094 7.91054 20.4392 6.74061C19.6692 5.5707 18.6495 4.58585 17.4535 3.85684C17.0299 3.59795 16.571 3.36849 16.112 3.17432L16.4827 2.58594L14.341 3.12724L15.053 4.85122L15.5236 4.10985C17.1483 4.84854 18.477 6.11287 19.2952 7.69899C20.1654 9.42973 20.3584 11.423 19.8365 13.2887C19.5506 14.3157 19.0669 15.277 18.4126 16.1188C17.6966 17.0386 16.7994 17.8015 15.7766 18.3606L14.6764 14.7125C14.9483 14.5942 15.2172 14.4685 15.4824 14.3359L15.659 14.2301L15.706 14.2066C15.9996 14.0171 16.2617 13.7828 16.4827 13.5122C16.69 13.2416 16.8528 12.9397 16.9651 12.6179C17.1877 11.9478 17.1477 11.2181 16.8534 10.5762C16.707 10.1671 16.4653 9.79904 16.148 9.50222C15.8307 9.20544 15.4473 8.98866 15.0293 8.86988C14.7528 8.78162 14.4411 8.72279 14.0998 8.69924C14.3057 8.54626 14.4763 8.3874 14.6058 8.21676C14.741 8.04614 14.8411 7.8755 14.8999 7.68722C14.9588 7.51071 14.9823 7.32831 14.9706 7.13414C14.9596 6.93171 14.9138 6.73266 14.8352 6.54576C14.7549 6.34724 14.6502 6.15946 14.5234 5.9868C14.3953 5.82118 14.2425 5.6763 14.0704 5.55727L14.0174 5.52197L13.9938 5.50432L13.9821 5.49255H13.9703L13.9409 5.46902L13.9173 5.45724C13.9073 5.45191 13.8974 5.44601 13.8879 5.4396L13.8702 5.42783H13.8585C13.6412 5.3064 13.41 5.21158 13.17 5.1454C12.942 5.09687 12.709 5.07515 12.4758 5.08068H12.4229L12.364 5.09245H12.3169L12.1699 5.11598L11.9933 5.13364L11.8051 5.16306L11.452 3.96864L10.3929 4.23341L10.6988 5.39252L10.6576 5.40429C10.6476 5.40756 10.6379 5.41148 10.6283 5.41605H10.6107L10.5989 5.42194C10.5854 5.42664 10.5716 5.43058 10.5577 5.43371L10.5224 5.4396L10.4812 5.45137L10.4459 5.45724L9.73985 5.63964L9.09847 2.86248L8.98668 2.89778H8.97491L8.85724 2.93896L8.73956 2.98015L8.61012 3.02721L8.42183 3.09782L8.36888 3.12137L8.13352 3.21551C7.40584 3.53072 6.71519 3.92538 6.07418 4.39227C4.55237 5.50605 3.374 7.02488 2.67332 8.77574C2.04412 10.3754 1.85121 12.1136 2.11436 13.8123C2.29856 15.018 2.72271 16.1744 3.36173 17.2132C3.69711 17.7721 4.09133 18.2899 4.55026 18.7841L3.69711 20.0668L6.85673 19.2608L6.53901 15.7775L5.72704 17.0014C4.6679 15.9338 3.94392 14.5799 3.64415 13.1062C3.38839 11.8079 3.46531 10.4659 3.86774 9.20526C4.33135 7.72292 5.20922 6.40407 6.39779 5.40429C6.96852 4.92183 7.60987 4.50996 8.30416 4.18046L8.63365 5.91619L6.29189 6.50457L6.43898 7.85786L7.59221 7.56366L8.56304 14.1595L7.16269 14.5125L7.39805 16.6719L10.5165 15.8775L10.9459 18.1722L12.4876 17.7721L11.9698 15.5128L12.8642 15.2832L12.9583 15.2597L13.0583 15.2363L13.1525 15.2067L13.2466 15.1833L14.8823 21.4143H14.8941C15.1754 21.3337 15.4507 21.2335 15.7179 21.1142L15.8943 21.0377C17.4786 20.3731 18.8648 19.3112 19.9189 17.9546C20.7233 16.9273 21.3142 15.7495 21.6567 14.4904C21.9994 13.2314 22.0866 11.9166 21.9135 10.6233H21.9076ZM10.4929 8.89341L10.0457 6.95175L10.6519 6.79877L10.7106 6.78111C11.0153 6.70754 11.3271 6.66807 11.6404 6.66344L11.858 6.70463C11.986 6.73859 12.1008 6.81035 12.1875 6.91056L12.3051 7.08708C12.3834 7.24169 12.4332 7.40909 12.4523 7.58132V7.81667C12.4324 7.95873 12.3709 8.09176 12.2757 8.19912C12.2286 8.25796 12.1699 8.29914 12.0992 8.3521C11.9347 8.45728 11.7591 8.54409 11.5756 8.61099C11.4594 8.651 11.3416 8.68634 11.2226 8.7169L10.4871 8.89341H10.4929ZM14.0233 11.9354C14.0174 12.0413 13.9997 12.1354 13.9644 12.2296C13.935 12.312 13.8879 12.3944 13.829 12.4649C13.7703 12.5414 13.6938 12.6061 13.6055 12.6768C13.5113 12.7473 13.4055 12.8062 13.2878 12.8709C12.9883 13.0179 12.6722 13.1286 12.3463 13.2004L11.5226 13.4122L10.8519 10.5055L11.6167 10.3114C11.9024 10.2396 12.1938 10.1922 12.4876 10.1703C12.617 10.1703 12.7288 10.1703 12.8405 10.1878C12.9907 10.1954 13.1372 10.2363 13.2694 10.3076C13.4018 10.3788 13.5166 10.4786 13.6055 10.5997C13.6733 10.6858 13.7325 10.7785 13.7821 10.8762C13.9069 11.152 13.9862 11.446 14.0174 11.747C14.0292 11.8059 14.0292 11.8765 14.0233 11.9354Z" fill="white"/>
</svg>

<svg xmlns="http://www.w3.org/2000/svg" width="24" height="24" fill="none" viewBox="0 0 24 24">
    <path fill="#fff" d="M21.908 10.623a9.48 9.48 0 0 0-4.455-6.766 10 10 0 0 0-1.341-.683l.37-.588-2.141.541.712 1.724.47-.741a7.94 7.94 0 0 1 3.772 3.589 7.78 7.78 0 0 1 .541 5.59 8.2 8.2 0 0 1-1.423 2.83 8.5 8.5 0 0 1-2.636 2.242l-1.1-3.649q.407-.177.805-.376l.177-.106.047-.023c.294-.19.556-.424.777-.695.207-.27.37-.572.482-.894a2.8 2.8 0 0 0-.112-2.042A2.73 2.73 0 0 0 15.03 8.87a4 4 0 0 0-.93-.17q.311-.23.507-.483c.135-.17.235-.342.294-.53q.088-.263.07-.553a1.8 1.8 0 0 0-.135-.588 2.6 2.6 0 0 0-.312-.56 2 2 0 0 0-.453-.429l-.053-.035-.023-.018-.012-.011h-.012l-.03-.024-.023-.012-.03-.017-.017-.012h-.011a3 3 0 0 0-.689-.283 3 3 0 0 0-.694-.064h-.053l-.059.011h-.047l-.147.024-.177.018-.188.03-.353-1.195-1.06.264.307 1.16-.041.011-.03.012h-.017l-.012.006-.041.012-.036.006-.04.011-.036.006-.706.183-.642-2.778-.111.036h-.012l-.118.041-.117.041-.13.047-.188.07-.053.024-.235.095c-.728.315-1.419.71-2.06 1.176a10.07 10.07 0 0 0-3.4 4.384 9.7 9.7 0 0 0-.56 5.036 9.1 9.1 0 0 0 1.248 3.401c.335.56.73 1.077 1.188 1.571l-.853 1.283 3.16-.806-.318-3.483L5.727 17a7.7 7.7 0 0 1-2.083-3.895 7.84 7.84 0 0 1 .224-3.9 8.14 8.14 0 0 1 2.53-3.802A8.8 8.8 0 0 1 8.304 4.18l.33 1.736-2.342.589.147 1.353 1.153-.294.971 6.595-1.4.353.235 2.16 3.119-.795.429 2.295 1.542-.4-.518-2.26.894-.229.094-.023.1-.024.095-.03.094-.023 1.635 6.231h.012q.423-.12.824-.3l.176-.076a10 10 0 0 0 4.025-3.083 9.8 9.8 0 0 0 1.994-7.332zm-11.415-1.73-.447-1.941.606-.153.059-.018q.457-.11.93-.118l.217.042a.66.66 0 0 1 .33.206l.117.176q.118.234.147.494v.236a.73.73 0 0 1-.176.382c-.047.059-.106.1-.177.153a2.7 2.7 0 0 1-.523.259q-.175.06-.353.106l-.736.176zm3.53 3.042a1 1 0 0 1-.059.295.8.8 0 0 1-.135.235 1.3 1.3 0 0 1-.224.212c-.094.07-.2.13-.317.194q-.452.221-.942.33l-.823.211-.671-2.907.765-.194q.429-.107.87-.14c.13 0 .242 0 .354.017a1.01 1.01 0 0 1 .765.412q.101.129.176.276c.125.276.204.57.235.871a.7.7 0 0 1 .006.188"/>
</svg>
